X:1
T:Goldberg Variations: Variation XXIV
T:BWV 988
T:J. S. Bach
%%score { ( 1 3 ) | 2 }
L:1/8
M:9/8
K:G
V:1 treble nm="Harp"
V:3 treble 
V:2 bass 
V:1
 G2 F G2 A Bd^c | d2 A d2 e e/4f/4g/f/e/d | gba bgf g3- | gfe fga d3- | dgf gba bd'/c'/b/a/ | %5
 bc'/b/a/g/ ab/a/g/f/ ga/g/f/e/ | d z2 g z2 f z2 | g z2 c z2 B z2 | z9 | z9 | z ba gaf e/d/^cd | %11
{d} ^c3- cde ABc | d2 f g2 a B3- | BAG A6- | Ad^c d/e/fe fa/g/f/e/ | fg/f/e/d/ ef/e/d/^c/ d3 | %16
 G2 F G2 A Bd^c | d2 A d2 e e/4f/4g/f/e/d | gba bgf g3- | gfe fga d3- | dgf gba bd'/c'/b/a/ | %21
 bc'/b/a/g/ ab/a/g/f/ ga/g/f/e/ | d z2 g z2 f z2 | g z2 c z2 B z2 | z9 | z9 | z ba gaf e/d/^cd | %27
{d} ^c3- cde ABc | d2 f g2 a B3- | BAG A6- | Ad^c d/e/fe fa/g/f/e/ | fg/f/e/d/ ef/e/d/^c/ d3 | %32
 B/4A/4G/4A/4B/4A/4B/4A/4B/4A/4B/4A/4 B/4A/4B/4A/4B/4A/4B/4A/4B/4A/4B/4A/4 B/4A/4B/4A/4B/4A/4B/4A/4B/4A/4B/4A/4 | %33
 B/4A/4B/4A/4GF GBA B2[I:staff +1] ^D | %34
[I:staff -1] b/4a/4g/4a/4b/4a/4b/4a/4b/4a/4b/4a/4 b/4a/4b/4a/4b/4a/4b/4a/4b/4a/4b/4a/4 b/4a/4b/4a/4b/4a/4b/4a/4b/4a/4b/4a/4 | %35
 b/4a/4b/4a/4gf gba b2 ^d | eg/f/e/d/ ce/d/c/B/ Ac/B/A/G/ | F2 e ^df/4e/4d/4e/4f B3- | %38
 B^de- e/=d/c/B/c- c/B/A/G/A- | AFG B/4A/4B/- B2- Bcd | e^GB A3- ABc | dFA D2 F B3- | %42
 B2 ^D EFG FGA | D3 D3 D3- | DGF GAB cd/c/B/A/ | Bc/B/A/G/ AB/A/G/F/ GB/A/G/F/ | G z2 D z2 F z2 | %47
 G z2 C z2 B,3 | %48
 B/4A/4G/4A/4B/4A/4B/4A/4B/4A/4B/4A/4 B/4A/4B/4A/4B/4A/4B/4A/4B/4A/4B/4A/4 B/4A/4B/4A/4B/4A/4B/4A/4B/4A/4B/4A/4 | %49
 B/4A/4B/4A/4GF GBA B2[I:staff +1] ^D | %50
[I:staff -1] b/4a/4g/4a/4b/4a/4b/4a/4b/4a/4b/4a/4 b/4a/4b/4a/4b/4a/4b/4a/4b/4a/4b/4a/4 b/4a/4b/4a/4b/4a/4b/4a/4b/4a/4b/4a/4 | %51
 b/4a/4b/4a/4gf gba b2 ^d | eg/f/e/d/ ce/d/c/B/ Ac/B/A/G/ | F2 e ^df/4e/4d/4e/4f B3- | %54
 B^de- e/=d/c/B/c- c/B/A/G/A- | AFG B/4A/4B/- B2- Bcd | e^GB A3- ABc | dFA D2 F B3- | %58
 B2 ^D EFG FGA | D3 D3 D3- | DGF GAB cd/c/B/A/ | Bc/B/A/G/ AB/A/G/F/ GB/A/G/F/ | G z2 D z2 F z2 | %63
 G z2 C z2 !fermata!B,3 |] %64
V:2
 G,3 z2 F, G,2 E, | F,3 z2 A, D,2 F, | E,6- E,2 A, | D,3 z2 z z2 C | B,3 z2 D G,2 B, | %5
 E3 z2 A, B,A,B, | CB,A, B,DC D2 D, | G,2 G,, G,,2 G, G,F,/E,/D,/C,/ | B,,G,,A,, B,,C,D, G,,2 G,- | %9
 G,F,E, A,2 G, F,G,A, | B,3 B,2 A, G,2 E, | A,,2 z z2 G, F,2 E, | F,2 A, B,2 ^C D2 D, | %13
 G,2 B,, ^C,D,E, F,E,F, | G,F,E, F,A,G, A,2 A,, | D,2 D,, D,,2 D, D,3 | G,3 z2 F, G,2 E, | %17
 F,3 z2 A, D,2 F, | E,6- E,2 A, | D,3 z2 z z2 C | B,3 z2 D G,2 B, | E3 z2 A, B,A,B, | %22
 CB,A, B,DC D2 D, | G,2 G,, G,,2 G, G,F,/E,/D,/C,/ | B,,G,,A,, B,,C,D, G,,2 G,- | %25
 G,F,E, A,2 G, F,G,A, | B,3 B,2 A, G,2 E, | A,,2 z z2 G, F,2 E, | F,2 A, B,2 ^C D2 D, | %29
 G,2 B,, ^C,D,E, F,E,F, | G,F,E, F,A,G, A,2 A,, | D,2 D,, D,,2 D, D,3 | %32
 D,F,A, DE/D/C/B,/ CD/C/B,/A,/ | B,3- B,CD G,A,B, | C z2 A, z2 F, z2 | _E,2 F, B,3- B,G,A, | %36
 G, z2 E, z2 C, z2 | A,,2 ^A,, B,,C/B,/A,/G,/ A,B,/A,/G,/F,/ | G,A,/G,/F,/E,/ C^D,E, B,,E,D, | %39
 E,/4D,/4E,/- E,2- E,G,B, E2 D | C3- CB,C F,G,A, | B,D,F, B,,C,D, G,,A,,B,, | C,3 C,3 C,3- | %43
 C,D,/C,/B,,/A,,/ B,,C,D, G,,A,,B,, | E,, z z E, z2 A,, z2 | G,,A,,B,, C,B,,A,, B,,G,,A,, | %46
 B,,3- B,,A,,G,, D,2 D,, | G,,2 G,,, G,,,2 G,, G,,3 | D,F,A, DE/D/C/B,/ CD/C/B,/A,/ | %49
 B,3- B,CD G,A,B, | C z2 A, z2 F, z2 | _E,2 F, B,3- B,G,A, | G, z2 E, z2 C, z2 | %53
 A,,2 ^A,, B,,C/B,/A,/G,/ A,B,/A,/G,/F,/ | G,A,/G,/F,/E,/ C^D,E, B,,E,D, | %55
 E,/4D,/4E,/- E,2- E,G,B, E2 D | C3- CB,C F,G,A, | B,D,F, B,,C,D, G,,A,,B,, | C,3 C,3 C,3- | %59
 C,D,/C,/B,,/A,,/ B,,C,D, G,,A,,B,, | E,, z z E, z2 A,, z2 | G,,A,,B,, C,B,,A,, B,,G,,A,, | %62
 B,,3- B,,A,,G,, D,2 D,, | G,,2 G,,, G,,,2 G,, !fermata!G,,3 |] %64
V:3
 x9 | x9 | G,2 F, G,2 A, B,D^C | D2 A, D2 E E/4F/4G/F/E/D/ z/ | GBA BGF G3- | GFE FGA D3- | %6
 DGF GBA Bd/c/B/A/ | Bc/B/A/ z/ AB/A/G/F/ GA/G/F/E/ | DBA GAF E/D/^CD |{D} ^C3- CDE A,B,=C | %10
[I:staff +1] D2 F G2 A B,3- | B,A,G, A,6- | A,D^C D/E/FE F[I:staff -1]A/G/F/E/ | %13
 FG/F/E/D/ EF/E/D/^C/ DE/D/C/B,/ | %14
[I:staff +1] A,[I:staff -1] z z[I:staff +1] D[I:staff -1] z z[I:staff +1] ^C[I:staff -1] z z | %15
[I:staff +1] D[I:staff -1] z z G z z F3 | x9 | x9 | G,2 F, G,2 A, B,D^C | %19
 D2 A, D2 E E/4F/4G/F/E/D/ z/ | GBA BGF G3- | GFE FGA D3- | DGF GBA Bd/c/B/A/ | %23
 Bc/B/A/ z/ AB/A/G/F/ GA/G/F/E/ | DBA GAF E/D/^CD |{D} C3- CDE A,B,C |[I:staff +1] D2 F G2 A B,3- | %27
 B,A,G, A,6- | A,D^C D/E/FE F[I:staff -1]A/G/F/E/ | FG/F/E/D/ EF/E/D/^C/ DE/D/C/B,/ | %30
[I:staff +1] A,[I:staff -1] z z[I:staff +1] D[I:staff -1] z z[I:staff +1] ^C[I:staff -1] z z | %31
[I:staff +1] D[I:staff -1] z z G z z F3 | x9 | x9 | %34
[I:staff +1] EG/F/E/D/ CE/D/C/B,/ A,C/B,/A,/G,/ | F,2 E ^DF/4E/4D/4E/4F B,3 | %36
 B,^DE- E/=D/C/B,/C C/B,/A,/G,/A, | A,F,G,[I:staff -1] z3 z3 | x9 | x9 | x9 | z3 B,3- B,CD | %42
 E[I:staff +1]_A,B, =A,3- A,B,C |[I:staff -1] D[I:staff +1]F,A, D,2 F, B,3- | %44
 B,2 ^D, E,F,G, F,G,A, | D,3 D,3 D,3- | D,G,F, G,A,B, CD/C/B,/A,/ | %47
 B,C/B,/A,/G,/ A,B,/A,/G,/F,/ G,3 | x9 | x9 | EG/F/E/D/ CE/D/C/B,/ A,C/B,/A,/G,/ | %51
 F,2 E ^DF/4E/4D/4E/4F B,3 | B,^DE- E/=D/C/B,/C C/B,/A,/G,/A, | A,F,G,[I:staff -1] z3 z3 | x9 | %55
 x9 | x9 | z3 B,3- B,CD | E[I:staff +1]_A,B, =A,3- A,B,C | %59
[I:staff -1] D[I:staff +1]F,A, D,2 F, B,3- | B,2 ^D, E,F,G, F,G,A, | D,3 D,3 D,3- | %62
 D,G,F, G,A,B, CD/C/B,/A,/ | B,C/B,/A,/G,/ A,B,/A,/G,/F,/ G,3 |] %64

